src/images/jcb.svg

<svg width="54" height="35" viewBox="0 0 54 35" fill="none" 
    xmlns="http://www.w3.org/2000/svg">
    <rect width="54" height="35" rx="3" fill="#21125E"/>
    <path d="M15.5242 5.604C12.9694 5.604 11 7.254 11 10.1282V18.325C11.2129 19.3363 12.2774 20.0814 13.4484 20.0814C14.779 20.0814 15.7371 19.1234 15.7371 17.9524V13.8008H19.3565V17.8992C19.3565 20.1879 16.429 21.3588 14.3 21.3588C13.0758 21.3588 11.9048 20.9863 11.0532 20.3476V29.3959H16.8016C18.8242 29.3959 21.1661 27.4798 21.1661 25.0314V5.604H15.5242Z" fill="#1174CE"/>
    <path d="M19.3032 13.8008V17.8992C19.3032 20.1879 16.3758 21.3588 14.2468 21.3588C13.0226 21.3588 11.8516 20.9863 11 20.3476V29.3959H16.7484C18.771 29.3959 21.1129 27.4798 21.1129 25.0314" fill="#02375E"/>
    <path d="M35.6436 19.975H38.1452C38.7839 19.975 39.3694 19.3895 39.3694 18.7508C39.3694 18.1121 38.7839 17.5266 38.1452 17.5266H35.6436V19.975Z" fill="#146643"/>
    <path d="M38.4646 5.604C35.8566 5.604 33.9404 7.254 33.9404 10.075V13.8008H40.6469C41.6049 13.8008 42.4033 14.5992 42.4033 15.5572C42.4033 16.5153 41.6049 17.3137 40.6469 17.3137C41.7114 17.3137 42.563 18.0588 42.563 19.0169C42.563 19.975 41.7646 20.7201 40.6469 20.7201H33.8872V29.3959H39.6356C41.6582 29.3959 44.0001 27.4798 44.0001 25.0314V5.604H38.4646Z" fill="#1BCC38"/>
    <path d="M42.3501 15.5573C42.3501 16.5153 41.5517 17.3137 40.5937 17.3137C41.6582 17.3137 42.5098 18.0589 42.5098 19.0169C42.5098 19.975 41.7114 20.7201 40.5937 20.7201H33.8872V29.3959H39.6356C41.6582 29.3959 44.0001 27.4798 44.0001 25.0314" fill="#146643"/>
    <path d="M39.3161 15.7702C39.3161 15.1315 38.7307 14.546 38.0919 14.546H35.6436V16.9412H38.1452C38.7839 16.9412 39.3161 16.4089 39.3161 15.7702Z" fill="#146643"/>
    <path d="M26.9148 5.604C24.3068 5.604 22.3906 7.254 22.3906 10.075V14.6524C23.0293 14.1201 23.8277 13.7476 24.6793 13.7476H30.7471V15.025C29.31 14.7056 27.9261 14.5459 27.2342 14.5459C25.7439 14.5459 24.5197 15.7701 24.5197 17.2605C24.5197 18.7508 25.7439 19.975 27.2342 19.975C27.9261 19.975 29.31 19.8685 30.7471 19.5492V20.7201H24.6793C23.8277 20.7201 22.9761 20.4008 22.3906 19.8153V29.3959H28.139C30.1616 29.3959 32.5035 27.4798 32.5035 25.0314V5.604H26.9148Z" fill="#E20E37"/>
    <path d="M30.7471 13.8008V15C29.31 14.6806 27.6922 14.5 27.0002 14.5C25.5099 14.5 24.5197 15.8234 24.5197 17.3137C24.5197 18.804 25.7439 20.0282 27.2342 20.0282C27.9261 20.0282 29.31 19.9217 30.7471 19.6024V20.7201H24.6793C23.8277 20.7201 22.9761 20.4008 22.3906 19.8153V29.3959H28.139C30.1616 29.3959 32.5035 27.4798 32.5035 25.0314" fill="#720A1E"/>
</svg>

<svg width="54" height="35" fill="none" xmlns="http://www.w3.org/2000/svg"><rect width="54" height="35" rx="3" fill="#21125E"/><path d="M15.524 5.604C12.97 5.604 11 7.254 11 10.128v8.197c.213 1.011 1.277 1.756 2.448 1.756 1.331 0 2.29-.958 2.29-2.129v-4.151h3.619v4.098c0 2.289-2.928 3.46-5.057 3.46-1.224 0-2.395-.373-3.247-1.011v9.048h5.749c2.022 0 4.364-1.916 4.364-4.365V5.604h-5.642z" fill="#1174CE"/><path d="M19.303 13.8v4.1c0 2.288-2.927 3.459-5.056 3.459-1.224 0-2.395-.373-3.247-1.011v9.048h5.748c2.023 0 4.365-1.916 4.365-4.365" fill="#02375E"/><path d="M35.644 19.975h2.501c.639 0 1.224-.585 1.224-1.224s-.585-1.224-1.224-1.224h-2.501v2.448z" fill="#146643"/><path d="M38.465 5.604c-2.608 0-4.525 1.65-4.525 4.471v3.726h6.707c.958 0 1.756.798 1.756 1.756s-.798 1.757-1.756 1.757c1.064 0 1.916.745 1.916 1.703 0 .958-.798 1.703-1.916 1.703h-6.76v8.676h5.749c2.022 0 4.364-1.916 4.364-4.365V5.604h-5.535z" fill="#1BCC38"/><path d="M42.35 15.557c0 .958-.798 1.757-1.756 1.757 1.064 0 1.916.745 1.916 1.703 0 .958-.799 1.703-1.916 1.703h-6.707v8.676h5.749c2.022 0 4.364-1.916 4.364-4.365m-4.684-9.261c0-.638-.585-1.224-1.224-1.224h-2.448v2.395h2.501a1.18 1.18 0 001.171-1.17z" fill="#146643"/><path d="M26.915 5.604c-2.608 0-4.524 1.65-4.524 4.471v4.577c.638-.532 1.437-.904 2.288-.904h6.068v1.277c-1.437-.32-2.82-.48-3.513-.48a2.726 2.726 0 00-2.714 2.716 2.726 2.726 0 002.714 2.714c.692 0 2.076-.107 3.513-.426v1.171H24.68c-.851 0-1.703-.32-2.288-.905v9.58h5.748c2.023 0 4.365-1.915 4.365-4.364V5.604h-5.59z" fill="#E20E37"/><path d="M30.747 13.8V15c-1.437-.32-3.055-.5-3.747-.5-1.49 0-2.48 1.323-2.48 2.814a2.726 2.726 0 002.714 2.714c.692 0 2.076-.106 3.513-.426v1.118H24.68c-.851 0-1.703-.32-2.288-.905v9.58h5.748c2.023 0 4.365-1.915 4.365-4.364" fill="#720A1E"/></svg>
